client/data/interface-icons/facebook.svg

<?xml version="1.0"?>
<svg xmlns="http://www.w3.org/2000/svg" xmlns:lc="http://www.librecad.org" xmlns:xlink="http://www.w3.org/1999/xlink" width="282.84271247mm" height="282.84271247mm" viewBox="-5 -5 292.84271247 292.84271247">
    <g lc:layername="0" lc:is_locked="false" lc:is_construction="false" fill="none" stroke="white" stroke-width="1">
        <circle cx="141.42135624" cy="141.42135624" r="141.42135624" stroke-width="5"/>
        <path fill="white" d="M176.42135624,86.42135624 A25,25 0 0,0 151.42135624,111.42135624 L151.42135624,131.42135624 L131.42135624,131.42135624 L131.42135624,151.42135624 L151.42135624,151.42135624 L151.42135624,221.42135624 L81.42135624,221.42135624 A20,20 0 0,1 61.42135624,201.42135624 L61.42135624,81.42135624 A20,20 0 0,1 81.42135624,61.42135624 L201.42135624,61.42135624 A20,20 0 0,1 221.42135624,81.42135624 L221.42135624,201.42135624 A20,20 0 0,1 201.42135624,221.42135624 L171.42135624,221.42135624 L171.42135624,151.42135624 L191.42135624,151.42135624 L195.42135624,131.42135624 L171.42135624,131.42135624 L171.42135624,111.42135624 A5,5 0 0,1 176.42135624,106.42135624 L195.42135624,106.42135624 L195.42135624,86.42135624 L175.42135624,86.42135624 "/>
    </g>
</svg>

<?xml version="1.0" encoding="UTF-8" standalone="no"?>
<svg
   xmlns:dc="http://purl.org/dc/elements/1.1/"
   xmlns:cc="http://creativecommons.org/ns#"
   xmlns:rdf="http://www.w3.org/1999/02/22-rdf-syntax-ns#"
   xmlns:svg="http://www.w3.org/2000/svg"
   xmlns="http://www.w3.org/2000/svg"
   xmlns:sodipodi="http://sodipodi.sourceforge.net/DTD/sodipodi-0.dtd"
   xmlns:inkscape="http://www.inkscape.org/namespaces/inkscape"
   width="282.84271247mm"
   height="282.84271247mm"
   viewBox="-5 -5 292.84271247 292.84271247"
   version="1.1"
   id="svg8"
   sodipodi:docname="facebook.svg"
   inkscape:version="0.92.2 (5c3e80d, 2017-08-06)">
  <metadata
     id="metadata14">
    <rdf:RDF>
      <cc:Work
         rdf:about="">
        <dc:format>image/svg+xml</dc:format>
        <dc:type
           rdf:resource="http://purl.org/dc/dcmitype/StillImage" />
      </cc:Work>
    </rdf:RDF>
  </metadata>
  <defs
     id="defs12" />
  <sodipodi:namedview
     pagecolor="#ffffff"
     bordercolor="#666666"
     borderopacity="1"
     objecttolerance="10"
     gridtolerance="10"
     guidetolerance="10"
     inkscape:pageopacity="0"
     inkscape:pageshadow="2"
     inkscape:window-width="1920"
     inkscape:window-height="1017"
     id="namedview10"
     showgrid="false"
     inkscape:zoom="0.31220833"
     inkscape:cx="449.29851"
     inkscape:cy="779.32684"
     inkscape:window-x="-8"
     inkscape:window-y="-8"
     inkscape:window-maximized="1"
     inkscape:current-layer="svg8" />
  <circle
     style="fill:none;stroke:#ffffff;stroke-width:5"
     id="circle2"
     r="141.42136"
     cy="141.42136"
     cx="141.42136" />
  <path
     style="fill:#005cb3;stroke:#005cb3;stroke-width:1;stroke-opacity:1;fill-opacity:1"
     inkscape:connector-curvature="0"
     id="path4"
     d="m 176.42136,86.421356 a 25,25 0 0 0 -25,25.000004 v 20 h -20 v 20 h 20 v 70 H 81.421356 a 20,20 0 0 1 -20,-20 V 81.421356 a 20,20 0 0 1 20,-20 H 201.42136 a 20,20 0 0 1 20,20 V 201.42136 a 20,20 0 0 1 -20,20 h -30 v -70 h 20 l 4,-20 h -24 v -20 a 5,5 0 0 1 5,-5 h 19 V 86.421356 h -20" />
</svg>
